X: 33
T:Merry Blacksmith, The
M:C|
L:1/8
R:Reel
K:D
A[|~d3A BAFA|ABdA BAFA|ABde f2ed|Beed egfe|!
dcdA BAFA|ABdA BAFA|ABde fdec|1dBAF D3A:|2dBAF D2fg|!
|:a2ag fgfe|dcdA BAFA|ABde f2ed|Beed egfe|!
~a3g fgfe|dcdA BAFA|ABde fdec|1dBAF D2fg:|2dBAF D3A|]!
